X: 5151
T: Bright Eyes
R: waltz
M: 3/4
K: Dmajor
((3ABc)|:d3e f>d|A4 d>c|B2 B>A B>d|B2 A2 D>E|
FA3 A>B|A F2 E D>F|A2 G2 F2|E4 ((3ABc)|
d3 e f>d|A2 d3 c|B>A G>A ((3Bcd)|B2 A>F D>E|
F A2 AB|A F2 E D>E|F2 F>D E>F|1 D4 ((3ABc):|2 D4 A>c||
e3f ed|c>B A2 d>e|f2 f>e d>c|B2 A2 D>E|
F A3 A>B|A F2 E D>F|A2 G2 F2|E4 A>c|
e2 e>f e>d|c>B A2 a>b|f2 f>e d>c|B2 A2 D>E|
F A2 A>d|f2 f>e d>B|A2 A>F E>F|D4 ((3ABc)||

